packages/assets/static/images/icons/letter-circle-p.svg

<svg width="24" height="24" viewBox="0 0 24 24" xmlns="http://www.w3.org/2000/svg">
<path d="M12 21.75C6.62344 21.75 2.25 17.3766 2.25 12C2.25 6.62344 6.62344 2.25 12 2.25C17.3766 2.25 21.75 6.62344 21.75 12C21.75 17.3766 17.3766 21.75 12 21.75ZM12 3.75C7.45125 3.75 3.75 7.45125 3.75 12C3.75 16.5487 7.45125 20.25 12 20.25C16.5487 20.25 20.25 16.5487 20.25 12C20.25 7.45125 16.5487 3.75 12 3.75Z"/>
<path d="M9.75 16.5C9.33563 16.5 9 16.1644 9 15.75V8.25C9 7.83563 9.33563 7.5 9.75 7.5H12.75C14.6109 7.5 16.125 9.01406 16.125 10.875C16.125 12.7359 14.6109 14.25 12.75 14.25H10.5V15.75C10.5 16.1644 10.1644 16.5 9.75 16.5ZM10.5 12.75H12.75C13.7841 12.75 14.625 11.9091 14.625 10.875C14.625 9.84094 13.7841 9 12.75 9H10.5V12.75Z"/>
</svg>

<svg viewBox="0 0 24 24" xmlns="http://www.w3.org/2000/svg" aria-hidden="true" fill="currentColor"><path d="M12 21.75c-5.377 0-9.75-4.373-9.75-9.75S6.623 2.25 12 2.25s9.75 4.373 9.75 9.75-4.373 9.75-9.75 9.75m0-18c-4.549 0-8.25 3.701-8.25 8.25s3.701 8.25 8.25 8.25 8.25-3.701 8.25-8.25S16.549 3.75 12 3.75"/><path d="M9.75 16.5a.75.75 0 0 1-.75-.75v-7.5a.75.75 0 0 1 .75-.75h3a3.38 3.38 0 0 1 3.375 3.375 3.38 3.38 0 0 1-3.375 3.375H10.5v1.5a.75.75 0 0 1-.75.75m.75-3.75h2.25c1.034 0 1.875-.84 1.875-1.875 0-1.034-.84-1.875-1.875-1.875H10.5z"/></svg>
